synths/sGBP.svg

<svg width="480" height="480" viewBox="0 0 480 480" fill="none" xmlns="http://www.w3.org/2000/svg"><mask id="mask0-385257" maskUnits="userSpaceOnUse" x="0" y="0" width="480" height="480"><circle cx="240" cy="240" r="240" fill="url(#paint0_linear-136787)"/></mask><g mask="url(#mask0-385257)"><circle cx="240" cy="240" r="240" fill="#31D8A4"/><circle cx="240" cy="240" r="208" fill="#fff"/></g><circle cx="240" cy="240" r="184" fill="#0E052F"/><path d="M175 298.28c7.68 0 13.44-1.76 17.28-5.28 3.84-3.68 5.76-9.44 5.76-17.28v-24.48h-22.8v-24.72h22.8v-21.6c0-7.52 1.2-14.32 3.6-20.4 2.4-6.24 5.76-11.52 10.08-15.84s9.52-7.68 15.6-10.08c6.08-2.4 12.88-3.6 20.4-3.6 6.72 0 12.96 1.04 18.72 3.12 5.92 2.08 11.04 5.12 15.36 9.12 4.32 4 7.68 8.8 10.08 14.4 2.56 5.6 3.84 11.84 3.84 18.72h-30c0-5.44-1.52-10-4.56-13.68-3.04-3.84-7.52-5.76-13.44-5.76-6.56 0-11.44 2.08-14.64 6.24-3.2 4.16-4.8 9.6-4.8 16.32v23.04h34.32v24.72h-34.32v24.72c0 2.08-.16 4.24-.48 6.48-.32 2.24-.96 4.4-1.92 6.48a17.63 17.63 0 01-3.36 5.52c-1.44 1.44-3.28 2.4-5.52 2.88v.48h38.64c7.52 0 12.8-1.76 15.84-5.28 3.2-3.52 4.8-8.96 4.8-16.32h28.56c0 16-4.16 28.08-12.48 36.24-8.32 8.16-20.4 12.24-36.24 12.24H175v-26.4z" fill="#fff"/><defs><linearGradient id="paint0_linear-136787" x1="240" y1="0" x2="240" y2="701.818" gradientUnits="userSpaceOnUse"><stop stop-color="#08021E"/><stop offset="1" stop-color="#1F0777"/></linearGradient></defs></svg>

<svg width="480" height="480" viewBox="0 0 480 480" fill="none" xmlns="http://www.w3.org/2000/svg">
<mask id="mask0-385257" mask-type="alpha" maskUnits="userSpaceOnUse" x="0" y="0" width="480" height="480">
<circle cx="240" cy="240" r="240" fill="url(#paint0_linear-136787)"/>
</mask>
<g mask="url(#mask0-385257)">
<circle cx="240" cy="240" r="240" fill="#31D8A4"/>
<circle cx="240" cy="240" r="208" fill="white"/>
</g>
<circle cx="240" cy="240" r="184" fill="#0E052F"/>
<path d="M175 298.28C182.68 298.28 188.44 296.52 192.28 293C196.12 289.32 198.04 283.56 198.04 275.72V251.24H175.24V226.52H198.04V204.92C198.04 197.4 199.24 190.6 201.64 184.52C204.04 178.28 207.4 173 211.72 168.68C216.04 164.36 221.24 161 227.32 158.6C233.4 156.2 240.2 155 247.72 155C254.44 155 260.68 156.04 266.44 158.12C272.36 160.2 277.48 163.24 281.8 167.24C286.12 171.24 289.48 176.04 291.88 181.64C294.44 187.24 295.72 193.48 295.72 200.36H265.72C265.72 194.92 264.2 190.36 261.16 186.68C258.12 182.84 253.64 180.92 247.72 180.92C241.16 180.92 236.28 183 233.08 187.16C229.88 191.32 228.28 196.76 228.28 203.48V226.52H262.6V251.24H228.28V275.96C228.28 278.04 228.12 280.2 227.8 282.44C227.48 284.68 226.84 286.84 225.88 288.92C225.08 291 223.96 292.84 222.52 294.44C221.08 295.88 219.24 296.84 217 297.32V297.8H255.64C263.16 297.8 268.44 296.04 271.48 292.52C274.68 289 276.28 283.56 276.28 276.2H304.84C304.84 292.2 300.68 304.28 292.36 312.44C284.04 320.6 271.96 324.68 256.12 324.68H175V298.28Z" fill="white"/>
<defs>
<linearGradient id="paint0_linear-136787" x1="240" y1="0" x2="240" y2="701.818" gradientUnits="userSpaceOnUse">
<stop stop-color="#08021E"/>
<stop offset="1" stop-color="#1F0777"/>
</linearGradient>
</defs>
</svg>
